img/icons/this/catalog/new.svg

<svg width="39" height="18" viewBox="0 0 39 18" fill="none" xmlns="http://www.w3.org/2000/svg">
<path d="M38.5907 16.2111L34.2351 8.85553L38.5462 1.79997C38.6486 1.63184 38.7044 1.43953 38.7081 1.24273C38.7117 1.04592 38.663 0.851678 38.5669 0.679875C38.4709 0.508073 38.3309 0.364878 38.1613 0.264938C37.9917 0.164999 37.7986 0.111903 37.6018 0.111084H2.9129C2.32353 0.111084 1.7583 0.345211 1.34155 0.761958C0.9248 1.17871 0.690674 1.74394 0.690674 2.33331L0.690674 15.6666C0.690674 16.256 0.9248 16.8212 1.34155 17.238C1.7583 17.6547 2.32353 17.8889 2.9129 17.8889H37.6351C37.8312 17.8888 38.0238 17.8369 38.1934 17.7383C38.3629 17.6397 38.5034 17.4981 38.6004 17.3276C38.6975 17.1572 38.7477 16.9642 38.746 16.768C38.7443 16.5719 38.6907 16.3798 38.5907 16.2111ZM12.3685 12.5333H11.124L7.50178 7.71108V12.5444H6.24623V5.66664H7.50178L11.1351 10.5V5.66664H12.3796L12.3685 12.5333ZM19.4018 6.77775H15.4796V8.43331H19.0351V9.54442H15.4796V11.3333H19.4018V12.4444H14.224V5.66664H19.3907L19.4018 6.77775ZM28.6129 12.5111H27.3573L25.6351 7.41108L23.9129 12.5333H22.6685L20.4462 5.66664H21.8018L23.2684 10.5889L24.9573 5.66664H26.3129L27.9351 10.5889L29.4129 5.66664H30.7796L28.6129 12.5111Z" fill="#8AAAC7"/>
</svg>

<svg width="39" height="18" fill="none" xmlns="http://www.w3.org/2000/svg"><path d="M38.59 16.211l-4.355-7.355L38.546 1.8a1.111 1.111 0 00-.944-1.689H2.912a2.222 2.222 0 00-2.22 2.222v13.334a2.222 2.222 0 002.222 2.222h34.722a1.112 1.112 0 00.956-1.678zm-26.222-3.678h-1.244L7.502 7.711v4.833H6.246V5.667h1.256l3.633 4.833V5.667h1.245l-.012 6.866zm7.034-5.755H15.48v1.655h3.555v1.111H15.48v1.79h3.922v1.11h-5.178V5.667h5.167l.01 1.11zm9.21 5.733h-1.255l-1.722-5.1-1.722 5.122h-1.244l-2.223-6.866h1.356l1.466 4.922 1.69-4.922h1.355l1.622 4.922 1.478-4.922h1.367l-2.167 6.844z" fill="#8AAAC7"/></svg>
